svg/icon/blk.svg

<svg xmlns="http://www.w3.org/2000/svg" xmlns:xlink="http://www.w3.org/1999/xlink" width="32" height="32" viewBox="0 0 32 32">
  <defs>
    <linearGradient id="blk-c" x1="50%" x2="50%" y1="0%" y2="100%">
      <stop offset="0%" stop-color="#FFF" stop-opacity=".5"/>
      <stop offset="100%" stop-opacity=".5"/>
    </linearGradient>
    <circle id="blk-b" cx="16" cy="15" r="15"/>
    <filter id="blk-a" width="111.7%" height="111.7%" x="-5.8%" y="-4.2%" filterUnits="objectBoundingBox">
      <feOffset dy=".5" in="SourceAlpha" result="shadowOffsetOuter1"/>
      <feGaussianBlur in="shadowOffsetOuter1" result="shadowBlurOuter1" stdDeviation=".5"/>
      <feComposite in="shadowBlurOuter1" in2="SourceAlpha" operator="out" result="shadowBlurOuter1"/>
      <feColorMatrix in="shadowBlurOuter1" values="0 0 0 0 0   0 0 0 0 0   0 0 0 0 0  0 0 0 0.199473505 0"/>
    </filter>
    <path id="blk-e" d="M23.099711,10.1297698 C23.1466335,13.0434432 20.6636674,13.8622047 20.6636674,13.8622047 C20.6636674,13.8622047 21.6756569,12.8615351 21.6285638,10.2985848 C21.5814707,7.73563458 19.6987709,6.46978401 19.6987709,6.46978401 C19.6987709,6.46978401 23.0527885,7.21609641 23.099711,10.1297698 Z M11.9362599,23.8189722 L8.5,23.9876126 L8.5,23.6665673 C8.5,23.6665673 10.6026382,23.4497439 10.6026382,19.6773312 L10.6026382,10.0372445 C10.6026382,6.84250377 8.5,6.2887487 8.5,6.2887487 L8.5,6 L11.9362599,6.16829126 L11.9362599,23.8189722 Z M17.4277237,23.9994838 C15.9332006,24.0117041 13.1598271,23.8029112 13.1598271,23.8029112 L13.1598271,6.1927319 C14.9879263,6.16846584 15.6272662,5.91567979 17.1333919,6.13232861 C18.6395176,6.34897742 19.9342364,7.85417168 20.2872639,9.35919137 C20.6402914,10.8642111 20.263888,12.2969563 19.7810132,13.0794059 C19.2981384,13.8618555 18.2395676,14.4040886 18.2395676,14.4040886 C18.2395676,14.4040886 19.8400502,14.9578436 20.4051673,15.4393242 C20.9702843,15.9208049 22.0643455,17.2332672 21.6406784,20.0868865 C21.2170112,22.9405058 18.9220762,23.9876126 17.4275531,23.9994838 L17.4277237,23.9994838 Z M21.3994116,23.3497119 C21.3994116,23.3497119 23.0289007,21.9288378 22.9572373,19.0479847 C22.8855739,16.1671316 21.3994116,14.8129456 21.3994116,14.8129456 C21.3994116,14.8129456 24.4645575,15.5836986 24.4997067,19.0149899 C24.5348559,22.4462811 21.3994116,23.3497119 21.3994116,23.3497119 Z M18.298434,13.0148128 C19.3965902,11.5539608 19.0515822,8.80491257 17.7218849,7.86482082 C16.3921876,6.92472906 14.9918507,7.39538596 14.7210654,7.66004317 C14.4502802,7.92470039 14.4627359,14.0907247 14.4627359,14.0907247 C14.4627359,14.0907247 17.2001071,14.4761885 18.298434,13.0148128 Z M18.5021628,15.6395629 C17.4744755,15.1819992 14.4622241,15.3024567 14.4622241,15.3024567 C14.4622241,15.3024567 14.4154722,16.8595 14.5248442,19.773348 C14.6342162,22.687196 15.607644,22.6713096 16.6196336,22.7111129 C17.6316231,22.7509162 19.5617573,22.6789909 20.1971728,20.1664931 C20.8325882,17.6539954 19.5303619,16.0974758 18.5021628,15.6400866 L18.5021628,15.6395629 Z"/>
    <filter id="blk-d" width="121.9%" height="119.4%" x="-10.9%" y="-6.9%" filterUnits="objectBoundingBox">
      <feOffset dy=".5" in="SourceAlpha" result="shadowOffsetOuter1"/>
      <feGaussianBlur in="shadowOffsetOuter1" result="shadowBlurOuter1" stdDeviation=".5"/>
      <feColorMatrix in="shadowBlurOuter1" values="0 0 0 0 0   0 0 0 0 0   0 0 0 0 0  0 0 0 0.204257246 0"/>
    </filter>
  </defs>
  <g fill="none" fill-rule="evenodd">
    <use fill="#000" filter="url(#blk-a)" xlink:href="#blk-b"/>
    <use fill="#181818" xlink:href="#blk-b"/>
    <use fill="url(#blk-c)" style="mix-blend-mode:soft-light" xlink:href="#blk-b"/>
    <circle cx="16" cy="15" r="14.5" stroke="#000" stroke-opacity=".097"/>
    <g fill-rule="nonzero">
      <use fill="#000" filter="url(#blk-d)" xlink:href="#blk-e"/>
      <use fill="#FFF" fill-rule="evenodd" xlink:href="#blk-e"/>
    </g>
  </g>
</svg>

<svg height="32" width="32" xmlns="http://www.w3.org/2000/svg" xmlns:xlink="http://www.w3.org/1999/xlink"><defs><linearGradient id="c" x1="50%" x2="50%" y1="0%" y2="100%"><stop offset="0" stop-color="#fff" stop-opacity=".5"/><stop offset="1" stop-opacity=".5"/></linearGradient><circle id="b" cx="16" cy="15" r="15"/><filter id="a" height="111.7%" width="111.7%" x="-5.8%" y="-4.2%"><feOffset dy=".5" in="SourceAlpha" result="shadowOffsetOuter1"/><feGaussianBlur in="shadowOffsetOuter1" result="shadowBlurOuter1" stdDeviation=".5"/><feComposite in="shadowBlurOuter1" in2="SourceAlpha" operator="out" result="shadowBlurOuter1"/><feColorMatrix in="shadowBlurOuter1" values="0 0 0 0 0 0 0 0 0 0 0 0 0 0 0 0 0 0 0.199473505 0"/></filter><path id="e" d="M23.1 10.13c.047 2.913-2.436 3.732-2.436 3.732s1.012-1 .965-3.563c-.048-2.563-1.93-3.83-1.93-3.83s3.354.747 3.4 3.66zM11.936 23.819l-3.436.169v-.321s2.103-.217 2.103-3.99v-9.64C10.603 6.843 8.5 6.29 8.5 6.29V6l3.436.168zm5.492.18c-1.495.013-4.268-.196-4.268-.196V6.193c1.828-.025 2.467-.277 3.973-.06 1.507.216 2.801 1.721 3.154 3.226.353 1.505-.023 2.938-.506 3.72s-1.541 1.325-1.541 1.325 1.6.554 2.165 1.035c.565.482 1.66 1.794 1.236 4.648-.424 2.854-2.719 3.9-4.213 3.912zm3.971-.65s1.63-1.42 1.558-4.301-1.558-4.235-1.558-4.235 3.066.77 3.1 4.202c.036 3.431-3.1 4.335-3.1 4.335zm-3.1-10.334c1.098-1.461.753-4.21-.577-5.15-1.33-.94-2.73-.47-3-.205-.272.265-.26 6.43-.26 6.43s2.738.386 3.836-1.075zm.203 2.625c-1.028-.458-4.04-.338-4.04-.338s-.047 1.557.063 4.471 1.083 2.898 2.095 2.938c1.012.04 2.942-.032 3.577-2.545.636-2.512-.667-4.069-1.695-4.526z"/><filter id="d" height="119.4%" width="121.9%" x="-10.9%" y="-6.9%"><feOffset dy=".5" in="SourceAlpha" result="shadowOffsetOuter1"/><feGaussianBlur in="shadowOffsetOuter1" result="shadowBlurOuter1" stdDeviation=".5"/><feColorMatrix in="shadowBlurOuter1" values="0 0 0 0 0 0 0 0 0 0 0 0 0 0 0 0 0 0 0.204257246 0"/></filter></defs><g fill="none" fill-rule="evenodd"><use fill="#000" filter="url(#a)" xlink:href="#b"/><use fill="#181818" xlink:href="#b"/><use fill="url(#c)" xlink:href="#b"/><circle cx="16" cy="15" r="14.5" stroke="#000" stroke-opacity=".097"/><g fill-rule="nonzero"><use fill="#000" filter="url(#d)" xlink:href="#e"/><use fill="#fff" fill-rule="evenodd" xlink:href="#e"/></g></g></svg>
